src/static/logos/podio.svg

<?xml version="1.0" encoding="UTF-8" standalone="no"?>
<svg width="256px" height="303px" viewBox="0 0 256 303" version="1.1" xmlns="http://www.w3.org/2000/svg" xmlns:xlink="http://www.w3.org/1999/xlink" preserveAspectRatio="xMidYMid">
    <g>
        <path d="M219.773101,37.6558611 C169.760016,-12.3545763 88.4928348,-12.5557545 38.222101,37.0796796 L37.6335664,37.6673318 C-12.5577549,87.885124 -12.5409901,169.577603 37.6626843,219.775984 L115.208069,297.30725 C118.594569,300.69375 123.028431,302.379941 127.462293,302.379941 C131.895273,302.379941 136.340606,300.69375 139.724459,297.30725 C146.485107,290.537779 146.485107,279.558565 139.724459,272.791741 L62.1667222,195.254298 C25.5911082,158.683979 25.4737542,99.2278703 61.826131,62.5040197 L62.18084,62.1572519 C98.8791022,25.4819311 158.579624,25.4934018 195.254945,62.1687226 C225.370797,92.2872214 229.693482,143.827672 205.289151,182.072713 C200.142341,190.136607 202.513244,200.854642 210.577138,206.003216 C218.660444,211.166791 229.364361,208.785299 234.507641,200.724052 C267.995876,148.250064 261.79641,79.6765228 219.773101,37.6558611 M188.740476,223.751901 C195.504653,230.522254 195.513477,241.500585 188.740476,248.262115 C185.366329,251.653909 180.92629,253.348924 176.495958,253.348924 C172.053272,253.348924 167.611468,251.653909 164.222321,248.270939 L86.6795837,170.741437 C63.5149693,147.568881 63.5149693,109.857669 86.6795837,86.6815841 C97.904976,75.4667801 112.827459,69.2849613 128.699363,69.2849613 L128.71701,69.2849613 C144.586267,69.2849613 159.510515,75.4756037 170.727966,86.7071725 C186.183395,102.162602 191.905504,124.787212 185.644273,145.766219 C182.887778,154.940122 173.24887,160.162815 164.072319,157.417791 C154.898416,154.681591 149.675723,145.022389 152.409276,135.843191 C155.029005,127.100761 152.652808,117.657737 146.20981,111.217387 C141.532416,106.533817 135.324127,103.956441 128.708187,103.953794 L128.699363,103.953794 C122.083423,103.953794 115.875133,106.52764 111.195092,111.19974 C101.541184,120.853648 101.541184,136.566726 111.195092,146.223281 L188.740476,223.751901" fill="#5088AC"></path>
    </g>
</svg>

<svg width="256" height="303" xmlns="http://www.w3.org/2000/svg" preserveAspectRatio="xMidYMid"><path d="M219.773 37.656c-50.013-50.01-131.28-50.212-181.55-.576l-.59.587c-50.19 50.218-50.174 131.91.03 182.109l77.545 77.531a17.268 17.268 0 0012.254 5.073 17.28 17.28 0 0012.262-5.073c6.761-6.77 6.761-17.748 0-24.515l-77.557-77.538c-36.576-36.57-36.693-96.026-.34-132.75l.354-.347c36.698-36.675 96.399-36.664 133.074.012 30.116 30.118 34.438 81.659 10.034 119.904-5.147 8.064-2.776 18.782 5.288 23.93 8.083 5.164 18.787 2.782 23.93-5.279 33.489-52.474 27.29-121.047-14.734-163.068M188.74 223.752c6.765 6.77 6.773 17.749 0 24.51a17.224 17.224 0 01-12.244 5.087 17.322 17.322 0 01-12.274-5.078L86.68 170.74c-23.165-23.172-23.165-60.883 0-84.06 11.225-11.214 26.147-17.396 42.02-17.396h.017c15.87 0 30.794 6.19 42.011 17.422a59.397 59.397 0 0114.916 59.06c-2.756 9.173-12.395 14.396-21.572 11.65-9.174-2.735-14.396-12.395-11.663-21.574a24.742 24.742 0 00-6.2-24.626c-4.677-4.683-10.885-7.26-17.5-7.263h-.01c-6.616 0-12.824 2.574-17.504 7.246-9.654 9.654-9.654 25.367 0 35.023l77.545 77.529" fill="#5088AC"/></svg>
